X:1
T:Sanctus
T:Missa Quarti Toni
T:Juan Anchieta
%%score [ 1 2 3 4 ]
L:1/8
Q:1/4=148
M:6/4
K:C
V:1 treble nm="Sopraan" snm="Sop."
V:2 treble-8 nm="Alt" snm="A."
V:3 treble-8 nm="Tenor" snm="T."
V:4 bass nm="Bas" snm="Bs."
V:1
 E6 F2 G4 | A4 G2 A4 GF | E2 G3 F E2 D4 | C4 z2 c4 B2 | c3 B A2 G2 A2 E2- | EFGA B2 A4 ^G2 | %6
w: San- * *|||ctus San- *|||
 A6 GF E4 | E6 F2 G4 | F2 A4 G2 G4- | G4 z2 c4 B2 | c2 A3 G FE D4 | CDEF G4 G4 | E3 F G2 A4 ^G2 | %13
w: ctus * * *|San- * *|* * * ctus|* Do- *||* * * * * mi||
 A4 z2 A4 GF | E4 z2 B2 c4 | B2 G3 F E2 D4 | C2 A,2 G,2 C4 B,2 | CDEF G3 A B4 | c2 A3 G F2 E2 G2- | %19
w: nus De- * *|us De- *||||us, Sab- * * * *|
 GF E3 D C2 B,4 | A,2 A2 G2 c4 B2 | c3 B/A/ G2 A2 G2 c2- | c2 B2 A2 B2 A4 | ^G2 B3 A A4 G2 | A12 |] %25
w: ||ba- * * * * * *|||oth.|
"^Pleni: tenor tacet" E4 C2 D2 E3 D | CB, A,2 E2 F2 G2 A2 | B4 c2 BA ^G4 | A2 c2 B2 A4 ^G2 | %29
w: Ple- * * * *|||ni * * * *|
 A4 z8 | z4 z4 z2 B2 | c3 B/A/ G2 A2 B4 | A2 E2 A2 G2 F2 E2- | E2 D2 E2 G2 F4 | E3 F G2 A2 G2 c2- | %35
w: sunt|cae-||li * * * * *||et * * * * ter-|
 cB A2 A3 G/F/ E2 D2 | C2 E2 F2 G3 FED | E4 D2 F3 G A2- | A2 ^G2 A2 E3 D C2 | B,4 A,4 z4 | z12 | %41
w: ||* ra glo- * *|* * * ri- * *|a *||
 z12 | z4 E3 F G2 A2 | G2 c4 B2 c3 B | A2 G2 F2 E2 D2 C2 | B,4 A,2 C3 D E2 | A,2 E4 F2 E2 A2- | %47
w: |tu- * * *|||||
 A2 ^G2 A3 =G F2 E2 | F4 E8 |][M:4/4] z8 | G6 A2 | B4 c4 | B2 A4 ^G2 | A8 | F4 A4 | G2 c4 BA | %56
w: |* a.||Ho- *|||san-|||
 G4 F2 A2- | AG G4 ^F2 | G6 FE | D2 C2 D4 | E4 E2 G2- | GA B2 G3 F | E4 z2 G2- | G2 A2 B4 | %64
w: ||||na in *||* ex-||
 c4 z2 c2- | cBAG A4 | G4 z2 A2- | AGFE F4 | G8 | z4 EFGA | B4 c4- | c2 BA B4 | c4 G4 | A4 B4 | %74
w: * cel-||||||||||
 c4 z2 G2- | GF E2 F4 | E8 | D8 | C4 E4- | E4 F4 | G8 | G6 A2 | B4 c2 A2- | A2 GF G4 | A4 F4 | %85
w: |||||||||||
 G4 E4 | F4 E4- | E4 D4 | E3 F G3 A | B4 c4- | c4 B4 | A8 | ^G8- | G8 |] E8- | E8- | E8 | %97
w: |||||||sis.||Be-|||
 F3 E D2 E2- | ED D4 ^C2 | D4 z2 F2 | E3 F G4 | F4 G2 A2- | AGFE F4 | E8 | z4 G4 | A8 | G4 E2 F2- | %107
w: ||* ne-|||||di-|||
 FE E4 D2 | E2 G3 F E2- | E2 DC B,4 | A,4 z2 A2 | G2 c3 A B2- | BA A4 ^G2 | A8 | z8 | z8 | z8 | %117
w: ||||||ctus||||
 z8 | z8 | z8 | z8 | z8 | z8 | z8 | z8 | z8 | z8 | z8 | A8 | G4 E4- | E2 F2 G4 | D4 A4- | A4 G4 | %133
w: |||||||||||Qui|||* ve-||
 F2 E2 F4 | E4 z4 | D2 G4 A2- | A2 B4 G2- | G2 A4 B2- | B2 c4 A2- | A2 B4 c2- | c2 B2 A2 G2- | %141
w: |nit|in no- *|||* * mi-|* * ne||
 G2 F2 E4 | D2 C2 B,4 | A,2 C3 D E2 | D2 F4 ED | E8- | E8 |] %147
w: |Do- * *|* mi- * *|ni. * * *|||
V:2
 e4 c2 d2 e3 d | c2 A2 B2 c2 d4 | c3 B G2 c2 d2 f2 | e2 g3 f e2 d4 | z2 c3 d e2 f2 g2 | %5
w: San- * * * *|||* * * * ctus,|San- * * * *|
 e2 c2 d2 A2 B4 | c3 d e2 A2 c4 | B4 c2 d4 d2- | d2 c2 f2 d2 e4 | d4 e3 f g4 | e2 c2 A4 B4 | %11
w: |ctus, * * * *|* * * San-||ctus Do- * *|mi- * * *|
 c4 c4 B4 | ABcd e2 d2 e4- | e2 c3 d e2 f4 | g3 f/e/ d2 g4 ^f2 | g4 z4 z4 | e3 f g2 f2 g4 | %17
w: nus De- *||||us|Sab- * * * *|
 e6 dc B4 | A2 c3 B A2 G4- | G2 c3 B A4 ^G2 | ABcdef g3 e g2- | gf e4 d2 e4 | c2 f3 e e4 d2 | %23
w: ba- * * *||||||
 e12- | e12 |] z12 | e4 c2 d2 e2 c2 | B2 e4 dc B4 | c2 BA ^G2 A2 B4 | A6 B2 c4 | d3 cBA A4 ^G2 | %31
w: oth.|||Ple- * * * *||ni * * * * *|sunt * *|cae- * * * * *|
 A4 z8 | z12 | z4 z4 z2 d2- | dA c2 B2 c3 Bcd | e4 f3 e/d/ c2 d2 | e4 d2 e3 d d2- | %37
w: li||et|* * * * ter- * * *|||
 d2 ^c2 d2 A2 d2 =c2 | B4 A2 c3 B A2- | A2 ^G2 A2 c3 d e2 | d2 g4 ^f2 g2 e2 | d4 e3 d3 c2- | %42
w: |* ra Glo- * *|||ri- * * *|
 c2 B2 c4 z2 c2- | cd e2 d4 c4 | z2 G2 A3 E G2 A2- | A2 ^G2 A3 B c3 d | e2 c3 B A3 B c2 | B4 A8 | %48
w: * * a tu-|||||* a.|
 A12 |][M:4/4] e8- | e8 | e8- | e8 | c8 | d4 c4 | e8 | d4 d4- | d2 c2 d4 | B4 c4 | A8 | B4 z2 e2 | %61
w: |Ho-||san-|||||||||na in|
 B3 c d4 | G3 A B4- | B2 c2 d4 | c2 e3 dcB | c4 z2 f2 | e4 A4- | A2 B2 c4 | d4 e4- | e2 f2 g4- | %70
w: |ex- * *|||* cel-|||||
 g2 fe f4 | g8 | e8 | e4 d4 | c3 B/A/ G4- | G4 d4 | c4 A4- | A2 GF G4 | A8 | z4 d4 | B4 e4 | %81
w: |||||||||||
 d4 c2 A2- | A2 ^G2 A4 | z4 e4 | c4 d4 | B4 c4 | z4 G4 | A8 | B8 | G4 c3 d | e2 f2 g4 | c4 A4 | %92
w: |||||||||||
 B8 | e8 |] e6 d2 | c4 A4- | A2 B2 c4 | d3 e f2 g2- | gfed e4 | d2 f3 e d2 | A2 c3 B G2 | %101
w: sis.||Be- *|||||ne- * * *||
 z2 d2 e2 f2- | fe e4 d2 | e2 g3 f e2- | e3 d/c/ B4 | z2 A4 GF | E3 F G2 A2- | AGFE F4 | E8 | %109
w: ||di- * * *|||||ctus|
 G4 d4 | z2 c4 BA | e8 | d2 c2 B4 | A8 | z4 e4 | d4 c4 | B4 e4- | e2 d2 c4 | B4 z2 g2- | %119
w: Qui *|ve- * *|||nit.|In||* no-|||
 gf e4 d2- | dc A3 B c2- | cd e3 d B2 | A2 d3 c A2 | c2 B4 c2- | c2 BA G2 d2 | c2 e4 B2 | e8 | %127
w: ||||||||
 d2 c2 B4 | A4 z4 | z8 | z8 | z8 | z8 | z8 | z4 A4 | B4 c4 | d4 z2 B2 | c4 d4 | e4 z2 c2 | d4 e4 | %140
w: mi- * *|ne||||||Do-||||||
 f4 z2 e2- | e2 d2 c4 | B2 A4 ^G2 | A8 | A4 d4 | ^c8- | c8 |] %147
w: * mi-||||ni. *|||
V:3
 z12 | z12 | z12 | z12 | z12 | z12 | A8 A4 | G6 A2 B4 | A6 B2 c4 | B6 c2 d4 | c8 z4 | e8 d4 | %12
w: ||||||San- ctus|San- * *|ctus, * *|San- * *|ctus|Do- *|
 c6 A2 B4 | A8 z4 | c4 B2 G2 A4 | G3 A B2 c4 B2 | c2 e3 d c2 d4 | c6 BA ^G4 | A8 z4 | z12 | %20
w: mi- * *|nus|De- * * *||||us||
 e4 e4 d4 | e2 c3 B A2 B4 | A4 z4 A4 | B4 c2 A2 B4 | A12 |] z12 | z12 | z12 | z12 | z12 | z12 | %31
w: Sa- ba- *||||oth.|||||||
 z12 | z12 | z12 | z12 | z12 | z12 | z12 | z12 | z12 | z12 | z12 | z12 | z12 | z12 | z12 | z12 | %47
w: ||||||||||||||||
 z12 | z12 |][M:4/4] G6 A2 | B4 c4 | B2 e4 dc | dcBA B4 | A8- | A8 | c8 | B4 A4 | B2 G2 A4 | G8 | %59
w: ||Ho- *||||san-|||||na|
 z8 | G8- | G8- | G8- | G8 | A8- | A8 | c8- | c8 | B4 c4- | c2 d2 e4 | d4 c4 | d8 | c8 | z4 G4 | %74
w: |in||||ex-||||cel- *||||||
 A4 B4 | c4 A4- | A2 G2 E4 | F4 D4 | E8 | z4 A4 | G4 c4 | B4 e4 | d4 c4 | B8 | A8 | G4 A4- | %86
w: ||||||||||||
 A4 G4 | F8 | E8 | e6 d2 | c4 d4 | A3 B c3 d | e3 d/c/ B4- | B8 |] z8 | z8 | z8 | z8 | z8 | z8 | %100
w: ||||||* * * sis.||||||||
 z8 | z8 | z8 | z8 | z8 | z8 | z8 | z8 | z8 | z8 | z8 | z8 | z8 | z8 | z8 | z8 | z8 | z8 | z8 | %119
w: |||||||||||||||||||
 z8 | z8 | z8 | z8 | z8 | z8 | z8 | z8 | z8 | z8 | z8 | z8 | z8 | z8 | z8 | z8 | z8 | z8 | z8 | %138
w: |||||||||||||||||||
 z8 | z8 | z8 | z8 | z8 | z8 | z8 | z8 | z8 |] %147
w: |||||||||
V:4
 z12 | z12 | z12 | z12 | z12 | z12 | A,,8 A,,4 | E,6 D,2 G,4 | D,2 F,4 G,2 C,D,E,F, | %9
w: ||||||San- ctus,|San- * *||
 G,3 F, G,2 A,2 G,4 | z2 F,3 E, F,2 G,4 | C,4 C,D, E,F, G,4 | A,3 G, E,2 F,2 E,4 | A,,8 D,4 | %14
w: * * * * ctus,|San- * * *|ctus Do- * * * *||mi- *|
 C,4 G,4 z4 | E,3 F, G,2 A,2 G,4 | C,3 D, E,2 A,2 G,4 | A,3 G,/F,/ E,4 E,4 | %18
w: nus *|De- * * * *||* * * * us|
 A,,3 B,, C,3 D, E,3 D, | C,3 B,, A,,4 E,4 | A,,4 C,4 G,4 | C,3 D, E,2 F,2 E,4 | F,2 A,4 G,2 F,4 | %23
w: Sab- * * * * *|||||
 E,8 E,4 | A,,12 |] z12 | z12 | E,4 C,2 D,2 E,4 | A,,4 E,8 | F,3 E,/D,/ C,2 D,2 E,4 | %30
w: * ba-|oth.|||Ple- * * *|* ni||
 D,2 G,,2 D,2 C,2 B,,4 | A,,4 C,4 D,2 E,2 | F,G,A,B, C3 B, A,4 | G,4 F,4 E,4 | z12 | z12 | z12 | %37
w: |sunt cae- * *||* * li||||
 A,,4 D,3 C, B,,2 A,,2 | E,4 A,,8 | E,4 F,4 E,4 | G,4 A,4 G,2 C2- | C2 B,2 C2 G,3 F, E,2 | %42
w: |ter- ra|glo- * *|||
 D,4 C,3 D, E,2 F,2 | E,2 C,2 G,4 A,3 G, | F,2 E,2 D,2 C,2 B,,2 A,,2 | E,4 A,,8 | %46
w: |* * * ri- *||* a|
 A,,4 C,2 D,2 C,2 A,,2 | E,4 F,3 E, D,2 C,2 | D,4 A,,8 |][M:4/4] E,8- | E,8 | E,8- | E,8 | %53
w: tu- * * * *||* a.|Ho-||san-||
 F,6 E,2 | D,4 F,4 | C,3 D, E,3 F, | G,4 D,2 F,2 | G,2 E,2 D,4 | E,8 | F,8 | E,3 F, G,2 E,2- | %61
w: |||||na||in * * *|
 E,2 G,3 A, B,2 | E,2 G,3 F, E,2- | E,2 D,C, B,,4 | A,,4 z2 A,2- | A,G,F,E, F,4 | C,4 z2 F,2- | %67
w: |||* ex-||* cel-|
 F,2 G,2 A,4 | G,3 F, E,3 D, | C,8 | G,4 A,4 | G,8 | C,8 | C,4 B,,4 | A,,4 E,4 | C,4 D,4 | %76
w: |||||||||
 A,,4 C,4 | _B,,8 | A,,6 B,,2 | C,4 D,4 | E,6 F,2 | G,4 C,4 | B,,4 A,,4 | E,8 | A,,4 D,4 | %85
w: |||||||||
 E,4 C,4 | D,4 E,4 | F,4 D,4 | G,6 F,2 | E,4 A,4- | A,4 G,4 | F,8 | E,8- | E,8 |] z8 | z8 | z8 | %97
w: |||||||sis.|||||
 z8 | z8 | z8 | z8 | z8 | z8 | z8 | z8 | z8 | z8 | z8 | z8 | z8 | z8 | z8 | z8 | z8 | E,8 | %115
w: |||||||||||||||||Qui|
 F,4 E,4- | E,4 A,,4 | A,8 | G,4 E,4- | E,4 G,4 | D,4 A,4- | A,4 G,4 | F,8 | E,2 G,3 F, E,2- | %124
w: ||ve-|||||||
 E,2 D,C, B,,4 | A,,4 E,4- | E,2 F,2 G,2 A,2 | B,2 A,4 ^G,2 | z2 A,4 G,F, | E,2 C,4 G,2- | %130
w: |* nit-|||in * *|* * no-|
 G,2 D,2 E,2 F,2 | G,2 F,3 E, D,2- | D,E, F,2 E,2 C,2 | D,2 E,4 D,2 | E,4 z2 D,2 | G,4 E,2 F,2- | %136
w: |||mi- * *|ne Do-||
 F,2 G,4 E,2- | E,2 F,4 G,2- | G,2 A,4 F,2- | F,2 G,4 A,2- | A,2 B,2 C2 C,2- | C,2 D,2 E,3 F, | %142
w: ||||||
 G,2 A,2 E,4 | A,,8 | D,8 | A,,8 | A,8 |] %147
w: |mi-||||

